X:2919
T:Jackie Daly's #2
O:england
C:Jackie Daly
R:reel
D:Arcady
M:C|
K:D
de|fedc BF~F2|AFEF DEFA|Bcde fB~B2|ABde faeg|
fedc BF~F2|AFEF DEFA|Bcde faef|dBAF D2:|
|:dc|Bcde fb~b2|gfeg fedf|ec~c2 Ac~c2|ecac e2dc|
Bcde fb~b2|gfeg fedf|ecac bcac|gece d2:|


